X:104
T: SCHOENE AUGEN SCHOENE STRAHLEN
N: E0701A
O: Europa, Mitteleuropa, Deutschland, Ruppin, Roennebeck
R: Liebes - Lied, Leid, Klage
M: 3/4
L: 1/16
K: C
 | C3DC2G,2A,B,CA, | G,4F,4E,4 |
C3DC2G,2A,B,CA, | G,4F,4E,4 |
C2E2E2E2E2C2 | B,2D2D2D2D2B,2 |
C4A,4D4 | C4z8

@@@ Tune index: 4417
